X:1
T:James Gibb editions
T:Psalm 24 (Becker) - Schütz
%%score [ ( 1 2 ) ( 3 4 ) ]
L:1/8
Q:1/4=107
M:2/2
K:F
V:1 treble nm="Soprano Alto"
V:2 treble 
V:3 bass nm="Tenor Bass"
V:4 bass 
V:1
"^Cornelius Becker\n(1561-1604)""^Psalm 24, SWV 121""^Heinrich Schütz\n(1585-1672)" F4 A4 | %1
w: ~Die Erd|
 c2 d4 c2 | B2 A2 G4 | C4 G4 | A2 c4 A2 | G2 F2 E4 | =C4 D4 |[M:2/2] E2 F4 E2 | D2 D2 C4 | c4 d4 | %10
w: und was sich|auf ihr regt|des Herrn|ist, der sie|hält und trägt,|er hat|des Bo- dens|Grund ge- legt,|an Was-|
 B2 _e4 f2 | c4 B4 | d4 B4 | G2 c4 d2 | G4 A8 |] %15
w: sern fest be-|rei- tet,|das Meer|um sie ge-|lei- tet.|
V:2
 C4 F4 | F2 F4 F2 | D2 F2 E4 | E4 E4 | F2 G4 F2 | E2 D2 ^C4 | A,4 A,4 |[M:2/2] =C2 D4 C2 | %8
 C2 =B,2 C4 | C4 F4 | G2 G4 F2 | F4 F4 | F4 G4 | E2 E4 D2 | E4 F8 |] %15
V:3
 A,4 D4 | C2 B,4 A,2 | G,2 C2 C4 | G,4 C4 | A,2 G,4 A,2 | C2 A,2 A,4 | E,4 F,4 | %7
[M:2/2] G,2 B,4 G,2 | G,2 G,2 G,4 | %9
"^2. Wer wird, Herr, auf dem Berge dein an heilger Statt dein Bürger sein?\nWer sein Herz hält von Sünden rein, kein trüglich'n Eid nicht schwöret,\nfolgt keinem, der falsch lehret.\n\n4. Macht auf die Tor in aller Welt, zu Dienst und Ehr alls wohlbestellt\ndem König, der sein'n Einzug hält. Wer ist der Kön'g der Ehren?\nSein Lob wolln wir vermehren.\n\n5. Es ist der Herr mächtig im Streit, der für uns stets zu Felde leit,\nerhält den Sieg zu jeder Zeit, Herr Zebaoth sein Name,\nwir sind sein heil'ger Same.\n\n6. Macht auf die Tor in aller Welt, zu Dienst und Ehr alls wohlbestellt\ndem König, der sein Einzug hält, er ist der Kön'g der Ehren,\nsein Lob laßt uns vermehren." A,4 A,4 | %10
 G,2 G,4 B,2 | A,4 B,4 | B,4 D4 | C4 A,2 F,2 | C4 C8 |] %15
V:4
 F,4 D,4 | A,,2 B,,4 F,2 | G,2 F,2 C,4 | C,4 C,4 | F,2 E,4 F,2 | C,2 D,2 A,,4 | A,,4 D,4 | %7
[M:2/2] C,2 B,,4 C,2 | G,,2 G,,2 C,4 | F,4 D,4 | _E,2 C,4 D,2 | F,4 B,,4 | B,,4 G,,4 | %13
 C,2 A,,4 B,,2 | C,4 F,,8 |] %15

